exports/renewables-share-electricity-production_v2_850x600.svg

<svg xmlns="http://www.w3.org/2000/svg" version="1.1" style="background-color:#fff;-webkit-font-smoothing:antialiased" width="850" height="600" font-family="'Helvetica Neue',Helvetica,Arial,sans-serif" font-size="18" text-rendering="optimizeLegibility"><g class="ChartTab"><g class="HeaderView"><g opacity=".8" transform="matrix(.27 0 0 .27 778 15)"><a xmlns:xlink="http://www.w3.org/1999/xlink" xlink:href="https://ourworldindata.org" target="_blank"><g><path fill="#1B2543" d="M0 0h211.2v130.1H0z"/><path fill="#E63912" d="M0 112.2h211.2v17.9H0z"/><g><path fill="none" d="M1.2 12.3h210.2v99.2H1.2z"/><path fill="#FFF" d="M37.8 32.2c0 12.7-7.7 19.4-17.1 19.4-9.7 0-16.6-7.5-16.6-18.7 0-11.7 7.3-19.3 17.1-19.3 10.1.1 16.6 7.7 16.6 18.6zm-28.6.6c0 7.9 4.3 14.9 11.8 14.9 7.5 0 11.8-6.9 11.8-15.3 0-7.3-3.8-14.9-11.8-14.9-7.9 0-11.8 7.3-11.8 15.3zM62.7 43.8c0 2.7.1 5.1.2 7.2h-4.3l-.3-4.3h-.1c-1.3 2.1-4 4.9-8.8 4.9-4.2 0-9.1-2.3-9.1-11.6V24.6h4.8v14.6c0 5 1.5 8.4 5.9 8.4 3.2 0 5.5-2.2 6.3-4.4.3-.7.4-1.6.4-2.5V24.6h4.8v19.2zM67.3 32.8c0-3.1-.1-5.8-.2-8.2h4.2l.2 5.2h.2c1.2-3.5 4.1-5.8 7.3-5.8.5 0 .9.1 1.4.2v4.5c-.5-.1-1-.2-1.6-.2-3.4 0-5.8 2.6-6.5 6.2-.1.7-.2 1.4-.2 2.2V51h-4.8V32.8zM95.4 51L86 14.2h5l4.4 18.6c1.1 4.6 2.1 9.2 2.7 12.7h.1c.6-3.7 1.8-8 3-12.8l4.9-18.5h5l4.5 18.7c1 4.4 2 8.7 2.6 12.6h.1c.8-4 1.8-8.1 3-12.7l4.9-18.5h4.9L120.6 51h-5L111 31.9c-1.1-4.7-1.9-8.3-2.4-12h-.1c-.7 3.7-1.5 7.3-2.8 12L100.4 51h-5zM154.9 37.6c0 9.8-6.8 14-13.2 14-7.2 0-12.7-5.2-12.7-13.6 0-8.8 5.8-14 13.1-14 7.7 0 12.8 5.5 12.8 13.6zm-21 .3c0 5.8 3.3 10.1 8 10.1 4.6 0 8-4.3 8-10.3 0-4.5-2.2-10.1-7.9-10.1s-8.1 5.2-8.1 10.3zM158.2 32.8c0-3.1-.1-5.8-.2-8.2h4.2l.2 5.2h.2c1.2-3.5 4.1-5.8 7.3-5.8.5 0 .9.1 1.4.2v4.5c-.5-.1-1-.2-1.6-.2-3.4 0-5.8 2.6-6.5 6.2-.1.7-.2 1.4-.2 2.2V51h-4.8V32.8zM173.5 12.3h4.8V51h-4.8V12.3zM206.5 12.3v31.9c0 2.3.1 5 .2 6.8h-4.3l-.2-4.6h-.2c-1.5 2.9-4.7 5.2-9 5.2-6.4 0-11.3-5.4-11.3-13.4-.1-8.8 5.4-14.2 11.9-14.2 4 0 6.8 1.9 8 4h.1V12.3h4.8zm-4.8 23.1c0-.6-.1-1.4-.2-2a7 7 0 00-6.9-5.6c-5 0-7.9 4.4-7.9 10.2 0 5.3 2.6 9.8 7.8 9.8 3.2 0 6.2-2.1 7.1-5.7.2-.7.2-1.3.2-2.1v-4.6zM42.8 64c.1 1.6-1.1 2.9-3.1 2.9-1.7 0-2.9-1.3-2.9-2.9 0-1.7 1.3-3 3-3 1.9 0 3 1.3 3 3zm-5.4 33.8V71.4h4.8v26.4h-4.8zM47.5 78.6c0-2.7-.1-5-.2-7.1h4.3l.3 4.4h.1c1.3-2.5 4.4-5 8.8-5 3.7 0 9.4 2.2 9.4 11.2v15.8h-4.8V82.6c0-4.3-1.6-7.8-6.1-7.8-3.2 0-5.6 2.2-6.5 4.9-.2.6-.3 1.4-.3 2.2v15.9h-4.8V78.6zM84 61.6c2.9-.4 6.3-.8 10.1-.8 6.8 0 11.7 1.6 14.9 4.6 3.3 3 5.2 7.3 5.2 13.2 0 6-1.9 10.9-5.3 14.3-3.4 3.4-9.1 5.3-16.3 5.3-3.4 0-6.2-.2-8.6-.4V61.6zm4.8 32.5c1.2.2 3 .3 4.8.3 10.2 0 15.7-5.7 15.7-15.6.1-8.7-4.9-14.2-14.9-14.2-2.5 0-4.3.2-5.6.5v29zM132.1 97.8l-.4-3.3h-.2a9.79 9.79 0 01-8.1 3.9c-5.4 0-8.1-3.8-8.1-7.6 0-6.4 5.7-9.9 15.9-9.8v-.5c0-2.2-.6-6.1-6-6.1-2.5 0-5 .8-6.9 2l-1.1-3.2c2.2-1.4 5.4-2.3 8.7-2.3 8.1 0 10.1 5.5 10.1 10.8v9.9c0 2.3.1 4.5.4 6.3h-4.3zm-.7-13.4c-5.3-.1-11.2.8-11.2 5.9 0 3.1 2.1 4.6 4.5 4.6 3.4 0 5.6-2.2 6.4-4.4.2-.5.3-1 .3-1.5v-4.6zM146.6 63.9v7.6h6.9v3.7h-6.9v14.2c0 3.3.9 5.1 3.6 5.1 1.3 0 2.2-.2 2.8-.3l.2 3.6c-.9.4-2.4.7-4.3.7-2.2 0-4-.7-5.2-2-1.4-1.4-1.9-3.8-1.9-6.9V75.1h-4.1v-3.7h4.1v-6.3l4.8-1.2zM171.4 97.8l-.4-3.3h-.2a9.79 9.79 0 01-8.1 3.9c-5.4 0-8.1-3.8-8.1-7.6 0-6.4 5.7-9.9 15.9-9.8v-.5c0-2.2-.6-6.1-6-6.1-2.5 0-5 .8-6.9 2l-1.1-3.2c2.2-1.4 5.4-2.3 8.7-2.3 8.1 0 10.1 5.5 10.1 10.8v9.9c0 2.3.1 4.5.4 6.3h-4.3zm-.7-13.4c-5.3-.1-11.2.8-11.2 5.9 0 3.1 2.1 4.6 4.5 4.6 3.4 0 5.6-2.2 6.4-4.4.2-.5.3-1 .3-1.5v-4.6z"/></g></g></a></g><a href="https://ourworldindata.org/grapher/renewables-share-electricity-production" target="_blank"><text font-size="27" x="15" y="36.6" fill="#555"><tspan x="15" y="36.6">Share of electricity production from renewable sources, World</tspan></text></a><text font-size="14.4" x="15" y="55.5" fill="#666"><tspan x="15" y="55.52">Share of renewable production in the electricity mix, measured as a percentage of total electricity production.</tspan><tspan x="15" y="71.36">Hydroelectric production is shown separately from other renewable sources. Other renewable sources includes solar</tspan><tspan x="15" y="87.2">photovoltaic (PV) wind (offshore &amp; onshore); geothermal and biomass electricity production.</tspan></text></g><g class="StackedArea"><defs><clipPath id="a"><path d="M52.56 0h820v894.2h-820z"/></clipPath></defs><g class="AxisBoxView"><g class="HorizontalAxis" fill="#666" text-anchor="middle" font-size="16.2"><text x="52.6" y="556.5">1971</text><text x="189.8" y="556.5">1980</text><text x="342.2" y="556.5">1990</text><text x="494.7" y="556.5">2000</text><text x="647.2" y="556.5">2010</text><text x="708.2" y="556.5">2014</text></g><g class="VerticalAxis" fill="#666" dominant-baseline="middle" text-anchor="end" font-size="16.2"><text x="47.56" y="535.3">0%</text><text x="47.56" y="439.4">5%</text><text x="47.56" y="343.4">10%</text><text x="47.56" y="247.5">15%</text><text x="47.56" y="151.5">20%</text></g><g class="AxisGridLines"><path stroke="#ccc" d="M52.56 535.3h655.59"/><path stroke="#ddd" stroke-dasharray="3,2" d="M52.56 439.4h655.59M52.56 343.4h655.59M52.56 247.5h655.59M52.56 151.5h655.59"/></g><g class="AxisGridLines" stroke="#ddd" stroke-dasharray="3,2"><path d="M189.8 535.3V109.4M342.2 535.3V109.4M494.7 535.3V109.4M647.2 535.3V109.4"/></g></g><g clip-path="url(#a)"><g class="HeightedLegend clickable"><g class="legendMark"><path fill="#34983f" d="M713.15 165.55h10v2.5h-10z"/><text font-size="14.4" x="728.2" y="163.4" fill="#333"><tspan x="728.15" y="163.37">Other renewable</tspan><tspan x="728.15" y="179.21">sources</tspan></text></g><g class="legendMark"><path fill="#3360a9" d="M713.15 378.45h10v2.5h-10z"/><text font-size="14.4" x="728.2" y="376.3" fill="#333"><tspan x="728.15" y="376.27">Hydroelectric</tspan><tspan x="728.15" y="392.11">sources</tspan></text></g></g><g class="Areas"><path d="M52.6 147.5l15.2 9.3 15.3 21.7 15.2-32.4 15.2 4.6 15.3 30.3 15.2 7.6 15.3-6.2 15.2-4 15.3 6.3L205 182l15.3-10 15.2-2 15.3 12.2 15.2 10.5 15.3 3.8 15.2 14.9 15.2 4.8 15.3 17.6 15.2-42.5 15.3-3 15.2 3.3 15.3-11.8 15.2 5.4 15.3-5.6 15.2 6.4 15.3 3.1 15.2 7.3 15.3 8.6 15.2 7.8 15.3 9.6 15.2 3.9 15.2 9.6 15.3-5.5 15.2-.1 15.3.3 15.2 9.1 15.3-6.4 15.2-6.4 15.3 3.6 15.2 3.4 15.3-7 15.2-1 15.3-1.8-.05 311.2H52.56" fill="#3360a9" fill-opacity=".7" class="World_0-area"/><path d="M52.6 142.6l15.2 9.4 15.3 21.4 15.2-32.1 15.2 4.2 15.3 30.2 15.2 7.5 15.3-6.1 15.2-4.5 15.3 5.4 15.2-3.3 15.3-12 15.2-2.6 15.3 11.8L266 182l15.3 3 15.2 14.8 15.2 4.8 15.3 7.9 15.2-46.4 15.3 2.4 15.2 1.4 15.3-12.1 15.2 4.9 15.3-5.8 15.2 6.4 15.3 2.3 15.2 6.8 15.3 7.2 15.2 6.3 15.3 8.9 15.2 1.5 15.2 7.8 15.3-8.2 15.2-2.8 15.3-3 15.2 4.8 15.3-12.8 15.2-14.9 15.3-4.5 15.2-7.1 15.3-18.4 15.2-14.7 15.3-13.1v114.7l-15.3 1.8-15.2 1-15.3 7-15.2-3.4-15.3-3.6-15.2 6.4-15.3 6.4-15.2-9.1-15.3-.3-15.2.1-15.3 5.5-15.2-9.6-15.2-3.9-15.3-9.6-15.2-7.8-15.3-8.6-15.2-7.3-15.3-3.1-15.2-6.4-15.3 5.6-15.2-5.4-15.3 11.8-15.2-3.3-15.3 3-15.2 42.5-15.3-17.6-15.2-4.8-15.2-14.9-15.3-3.8-15.2-10.5-15.3-12.2-15.2 2-15.3 10-15.2 2.7-15.3-6.3-15.2 4-15.3 6.2-15.2-7.6-15.3-30.3-15.2-4.6-15.2 32.4-15.3-21.7-15.2-9.3" fill="#34983f" fill-opacity=".7" class="World_1-area"/><path stroke-linecap="round" d="M52.6 147.5l15.2 9.3 15.3 21.7 15.2-32.4 15.2 4.6 15.3 30.3 15.2 7.6 15.3-6.2 15.2-4 15.3 6.3L205 182l15.3-10 15.2-2 15.3 12.2 15.2 10.5 15.3 3.8 15.2 14.9 15.2 4.8 15.3 17.6 15.2-42.5 15.3-3 15.2 3.3 15.3-11.8 15.2 5.4 15.3-5.6 15.2 6.4 15.3 3.1 15.2 7.3 15.3 8.6 15.2 7.8 15.3 9.6 15.2 3.9 15.2 9.6 15.3-5.5 15.2-.1 15.3.3 15.2 9.1 15.3-6.4 15.2-6.4 15.3 3.6 15.2 3.4 15.3-7 15.2-1 15.3-1.8" stroke="#2B508D" stroke-opacity=".7" stroke-width=".5" fill="none" class="World_0-border"/><path stroke-linecap="round" d="M52.6 142.6l15.2 9.4 15.3 21.4 15.2-32.1 15.2 4.2 15.3 30.2 15.2 7.5 15.3-6.1 15.2-4.5 15.3 5.4 15.2-3.3 15.3-12 15.2-2.6 15.3 11.8L266 182l15.3 3 15.2 14.8 15.2 4.8 15.3 7.9 15.2-46.4 15.3 2.4 15.2 1.4 15.3-12.1 15.2 4.9 15.3-5.8 15.2 6.4 15.3 2.3 15.2 6.8 15.3 7.2 15.2 6.3 15.3 8.9 15.2 1.5 15.2 7.8 15.3-8.2 15.2-2.8 15.3-3 15.2 4.8 15.3-12.8 15.2-14.9 15.3-4.5 15.2-7.1 15.3-18.4 15.2-14.7 15.3-13.1" stroke="#2C7F35" stroke-opacity=".7" stroke-width=".5" fill="none" class="World_1-border"/></g></g></g><g class="SourcesFooter" fill="#777"><g class="clickable" fill="#777"><text font-size="12.6" x="15" y="581.6"><tspan x="15" y="581.58">Source: International Energy Agency (IEA) via The World Bank</tspan></text></g><text font-size="12.6" x="649" y="581.6"><tspan x="649.02" y="581.58"><a target="_blank" href="https://ourworldindata.org" fill="#777">OurWorldInData.org</a> • <a href="http://creativecommons.org/licenses/by-sa/4.0/deed.en_US" target="_blank" fill="#777">CC BY-SA</a></tspan></text></g></g></svg>

<svg xmlns="http://www.w3.org/2000/svg" version="1.1" style="font-family: 'Helvetica Neue', Helvetica, Arial, sans-serif; font-size: 18px; background-color: white; text-rendering: optimizeLegibility; -webkit-font-smoothing: antialiased;" width="850" height="600"><g class="ChartTab"><g class="HeaderView"><g opacity="0.8" transform="translate(778, 15) scale(0.27)"><a xmlns:xlink="http://www.w3.org/1999/xlink" xlink:href="https://ourworldindata.org" target="_blank"><g><rect x="0" y="0" fill="#1B2543" width="211.2" height="130.1"/><rect x="0" y="112.2" fill="#E63912" width="211.2" height="17.9"/><g><rect x="1.2" y="12.3" fill="none" width="210.2" height="99.2"/><path fill="#FFFFFF" d="M37.8,32.2c0,12.7-7.7,19.4-17.1,19.4c-9.7,0-16.6-7.5-16.6-18.7c0-11.7,7.3-19.3,17.1-19.3 C31.3,13.7,37.8,21.3,37.8,32.2z M9.2,32.8c0,7.9,4.3,14.9,11.8,14.9c7.5,0,11.8-6.9,11.8-15.3c0-7.3-3.8-14.9-11.8-14.9 C13.1,17.5,9.2,24.8,9.2,32.8z"/><path fill="#FFFFFF" d="M62.7,43.8c0,2.7,0.1,5.1,0.2,7.2h-4.3l-0.3-4.3h-0.1c-1.3,2.1-4,4.9-8.8,4.9c-4.2,0-9.1-2.3-9.1-11.6 V24.6h4.8v14.6c0,5,1.5,8.4,5.9,8.4c3.2,0,5.5-2.2,6.3-4.4c0.3-0.7,0.4-1.6,0.4-2.5V24.6h4.8V43.8z"/><path fill="#FFFFFF" d="M67.3,32.8c0-3.1-0.1-5.8-0.2-8.2h4.2l0.2,5.2h0.2c1.2-3.5,4.1-5.8,7.3-5.8c0.5,0,0.9,0.1,1.4,0.2v4.5 c-0.5-0.1-1-0.2-1.6-0.2c-3.4,0-5.8,2.6-6.5,6.2c-0.1,0.7-0.2,1.4-0.2,2.2V51h-4.8V32.8z"/><path fill="#FFFFFF" d="M95.4,51l-9.4-36.8h5l4.4,18.6c1.1,4.6,2.1,9.2,2.7,12.7h0.1c0.6-3.7,1.8-8,3-12.8l4.9-18.5h5l4.5,18.7 c1,4.4,2,8.7,2.6,12.6h0.1c0.8-4,1.8-8.1,3-12.7l4.9-18.5h4.9L120.6,51h-5L111,31.9c-1.1-4.7-1.9-8.3-2.4-12h-0.1 c-0.7,3.7-1.5,7.3-2.8,12L100.4,51H95.4z"/><path fill="#FFFFFF" d="M154.9,37.6c0,9.8-6.8,14-13.2,14c-7.2,0-12.7-5.2-12.7-13.6c0-8.8,5.8-14,13.1-14 C149.8,24,154.9,29.5,154.9,37.6z M133.9,37.9c0,5.8,3.3,10.1,8,10.1c4.6,0,8-4.3,8-10.3c0-4.5-2.2-10.1-7.9-10.1 C136.3,27.6,133.9,32.8,133.9,37.9z"/><path fill="#FFFFFF" d="M158.2,32.8c0-3.1-0.1-5.8-0.2-8.2h4.2l0.2,5.2h0.2c1.2-3.5,4.1-5.8,7.3-5.8c0.5,0,0.9,0.1,1.4,0.2v4.5 c-0.5-0.1-1-0.2-1.6-0.2c-3.4,0-5.8,2.6-6.5,6.2c-0.1,0.7-0.2,1.4-0.2,2.2V51h-4.8V32.8z"/><path fill="#FFFFFF" d="M173.5,12.3h4.8V51h-4.8V12.3z"/><path fill="#FFFFFF" d="M206.5,12.3v31.9c0,2.3,0.1,5,0.2,6.8h-4.3l-0.2-4.6H202c-1.5,2.9-4.7,5.2-9,5.2 c-6.4,0-11.3-5.4-11.3-13.4c-0.1-8.8,5.4-14.2,11.9-14.2c4,0,6.8,1.9,8,4h0.1V12.3H206.5z M201.7,35.4c0-0.6-0.1-1.4-0.2-2 c-0.7-3.1-3.3-5.6-6.9-5.6c-5,0-7.9,4.4-7.9,10.2c0,5.3,2.6,9.8,7.8,9.8c3.2,0,6.2-2.1,7.1-5.7c0.2-0.7,0.2-1.3,0.2-2.1V35.4z"/><path fill="#FFFFFF" d="M42.8,64c0.1,1.6-1.1,2.9-3.1,2.9c-1.7,0-2.9-1.3-2.9-2.9c0-1.7,1.3-3,3-3C41.7,61,42.8,62.3,42.8,64z M37.4,97.8V71.4h4.8v26.4H37.4z"/><path fill="#FFFFFF" d="M47.5,78.6c0-2.7-0.1-5-0.2-7.1h4.3l0.3,4.4h0.1c1.3-2.5,4.4-5,8.8-5c3.7,0,9.4,2.2,9.4,11.2v15.8h-4.8 V82.6c0-4.3-1.6-7.8-6.1-7.8c-3.2,0-5.6,2.2-6.5,4.9c-0.2,0.6-0.3,1.4-0.3,2.2v15.9h-4.8V78.6z"/><path fill="#FFFFFF" d="M84,61.6c2.9-0.4,6.3-0.8,10.1-0.8c6.8,0,11.7,1.6,14.9,4.6c3.3,3,5.2,7.3,5.2,13.2c0,6-1.9,10.9-5.3,14.3 c-3.4,3.4-9.1,5.3-16.3,5.3c-3.4,0-6.2-0.2-8.6-0.4V61.6z M88.8,94.1c1.2,0.2,3,0.3,4.8,0.3c10.2,0,15.7-5.7,15.7-15.6 c0.1-8.7-4.9-14.2-14.9-14.2c-2.5,0-4.3,0.2-5.6,0.5V94.1z"/><path fill="#FFFFFF" d="M132.1,97.8l-0.4-3.3h-0.2c-1.5,2.1-4.3,3.9-8.1,3.9c-5.4,0-8.1-3.8-8.1-7.6c0-6.4,5.7-9.9,15.9-9.8v-0.5 c0-2.2-0.6-6.1-6-6.1c-2.5,0-5,0.8-6.9,2l-1.1-3.2c2.2-1.4,5.4-2.3,8.7-2.3c8.1,0,10.1,5.5,10.1,10.8v9.9c0,2.3,0.1,4.5,0.4,6.3 H132.1z M131.4,84.4c-5.3-0.1-11.2,0.8-11.2,5.9c0,3.1,2.1,4.6,4.5,4.6c3.4,0,5.6-2.2,6.4-4.4c0.2-0.5,0.3-1,0.3-1.5V84.4z"/><path fill="#FFFFFF" d="M146.6,63.9v7.6h6.9v3.7h-6.9v14.2c0,3.3,0.9,5.1,3.6,5.1c1.3,0,2.2-0.2,2.8-0.3l0.2,3.6 c-0.9,0.4-2.4,0.7-4.3,0.7c-2.2,0-4-0.7-5.2-2c-1.4-1.4-1.9-3.8-1.9-6.9V75.1h-4.1v-3.7h4.1v-6.3L146.6,63.9z"/><path fill="#FFFFFF" d="M171.4,97.8l-0.4-3.3h-0.2c-1.5,2.1-4.3,3.9-8.1,3.9c-5.4,0-8.1-3.8-8.1-7.6c0-6.4,5.7-9.9,15.9-9.8v-0.5 c0-2.2-0.6-6.1-6-6.1c-2.5,0-5,0.8-6.9,2l-1.1-3.2c2.2-1.4,5.4-2.3,8.7-2.3c8.1,0,10.1,5.5,10.1,10.8v9.9c0,2.3,0.1,4.5,0.4,6.3 H171.4z M170.7,84.4c-5.3-0.1-11.2,0.8-11.2,5.9c0,3.1,2.1,4.6,4.5,4.6c3.4,0,5.6-2.2,6.4-4.4c0.2-0.5,0.3-1,0.3-1.5V84.4z"/></g></g></a></g><a href="https://ourworldindata.org/grapher/renewables-share-electricity-production" target="_blank"><text font-size="27.00" x="15.0" y="36.6" fill="#555"><tspan x="15" y="36.6">Share of electricity production from renewable sources, World</tspan></text></a><text font-size="14.40" x="15.0" y="55.5" fill="#666"><tspan x="15" y="55.519999999999996">Share of renewable production in the electricity mix, measured as a percentage of total electricity production.</tspan><tspan x="15" y="71.36">Hydroelectric production is shown separately from other renewable sources. Other renewable sources includes solar</tspan><tspan x="15" y="87.2">photovoltaic (PV) wind (offshore &amp; onshore); geothermal and biomass electricity production.</tspan></text></g><g class="StackedArea"><defs><clipPath id="boundsClip-1"><rect x="52.562" y="0" width="820" height="894.2"></rect></clipPath></defs><g class="AxisBoxView"><g class="HorizontalAxis"><text x="52.6" y="556.5" fill="#666" text-anchor="middle" font-size="16.2">1971</text><text x="189.8" y="556.5" fill="#666" text-anchor="middle" font-size="16.2">1980</text><text x="342.2" y="556.5" fill="#666" text-anchor="middle" font-size="16.2">1990</text><text x="494.7" y="556.5" fill="#666" text-anchor="middle" font-size="16.2">2000</text><text x="647.2" y="556.5" fill="#666" text-anchor="middle" font-size="16.2">2010</text><text x="708.2" y="556.5" fill="#666" text-anchor="middle" font-size="16.2">2014</text></g><g class="VerticalAxis"><text x="47.56" y="535.3" fill="#666" dominant-baseline="middle" text-anchor="end" font-size="16.2">0%</text><text x="47.56" y="439.4" fill="#666" dominant-baseline="middle" text-anchor="end" font-size="16.2">5%</text><text x="47.56" y="343.4" fill="#666" dominant-baseline="middle" text-anchor="end" font-size="16.2">10%</text><text x="47.56" y="247.5" fill="#666" dominant-baseline="middle" text-anchor="end" font-size="16.2">15%</text><text x="47.56" y="151.5" fill="#666" dominant-baseline="middle" text-anchor="end" font-size="16.2">20%</text></g><g class="AxisGridLines"><line x1="52.56" y1="535.3" x2="708.15" y2="535.3" stroke="#ccc"></line><line x1="52.56" y1="439.4" x2="708.15" y2="439.4" stroke="#ddd" stroke-dasharray="3,2"></line><line x1="52.56" y1="343.4" x2="708.15" y2="343.4" stroke="#ddd" stroke-dasharray="3,2"></line><line x1="52.56" y1="247.5" x2="708.15" y2="247.5" stroke="#ddd" stroke-dasharray="3,2"></line><line x1="52.56" y1="151.5" x2="708.15" y2="151.5" stroke="#ddd" stroke-dasharray="3,2"></line></g><g class="AxisGridLines"><line x1="189.8" y1="535.30" x2="189.8" y2="109.40" stroke="#ddd" stroke-dasharray="3,2"></line><line x1="342.2" y1="535.30" x2="342.2" y2="109.40" stroke="#ddd" stroke-dasharray="3,2"></line><line x1="494.7" y1="535.30" x2="494.7" y2="109.40" stroke="#ddd" stroke-dasharray="3,2"></line><line x1="647.2" y1="535.30" x2="647.2" y2="109.40" stroke="#ddd" stroke-dasharray="3,2"></line></g></g><g clip-path="url(#boundsClip-1)"><g class="HeightedLegend clickable"><g class="legendMark"><rect x="713.152" y="151.85000000000002" width="121.84800000000001" height="29.900000000000002" fill="#fff" opacity="0"></rect><rect x="713.152" y="165.55" width="10" height="2.5" fill="#34983f"></rect><text font-size="14.40" x="728.2" y="163.4" fill="#333"><tspan x="728.152" y="163.37000000000003">Other renewable</tspan><tspan x="728.152" y="179.21000000000004">sources</tspan></text></g><g class="legendMark"><rect x="713.152" y="364.75" width="99.096" height="29.900000000000002" fill="#fff" opacity="0"></rect><rect x="713.152" y="378.45" width="10" height="2.5" fill="#3360a9"></rect><text font-size="14.40" x="728.2" y="376.3" fill="#333"><tspan x="728.152" y="376.27">Hydroelectric</tspan><tspan x="728.152" y="392.10999999999996">sources</tspan></text></g></g><g class="Areas"><rect x="52.562" y="109.4" width="655.59" height="425.9000000000001" opacity="0" fill="rgba(255,255,255,0)"></rect><path stroke-linecap="round" d="M52.6 147.5L67.8 156.8L83.1 178.5L98.3 146.1L113.5 150.7L128.8 181L144 188.6L159.3 182.4L174.5 178.4L189.8 184.7L205 182L220.3 172L235.5 170L250.8 182.2L266 192.7L281.3 196.5L296.5 211.4L311.7 216.2L327 233.8L342.2 191.3L357.5 188.3L372.7 191.6L388 179.8L403.2 185.2L418.5 179.6L433.7 186L449 189.1L464.2 196.4L479.5 205L494.7 212.8L510 222.4L525.2 226.3L540.4 235.9L555.7 230.4L570.9 230.3L586.2 230.6L601.4 239.7L616.7 233.3L631.9 226.9L647.2 230.5L662.4 233.9L677.7 226.9L692.9 225.9L708.2 224.1L708.152 535.3000000000001L52.562 535.3000000000001" fill="#3360a9" fill-opacity="0.7" class="World_0-area"></path><path stroke-linecap="round" d="M52.6 142.6L67.8 152L83.1 173.4L98.3 141.3L113.5 145.5L128.8 175.7L144 183.2L159.3 177.1L174.5 172.6L189.8 178L205 174.7L220.3 162.7L235.5 160.1L250.8 171.9L266 182L281.3 185L296.5 199.8L311.7 204.6L327 212.5L342.2 166.1L357.5 168.5L372.7 169.9L388 157.8L403.2 162.7L418.5 156.9L433.7 163.3L449 165.6L464.2 172.4L479.5 179.6L494.7 185.9L510 194.8L525.2 196.3L540.4 204.1L555.7 195.9L570.9 193.1L586.2 190.1L601.4 194.9L616.7 182.1L631.9 167.2L647.2 162.7L662.4 155.6L677.7 137.2L692.9 122.5L708.2 109.4L708.2 224.1L692.9 225.9L677.7 226.9L662.4 233.9L647.2 230.5L631.9 226.9L616.7 233.3L601.4 239.7L586.2 230.6L570.9 230.3L555.7 230.4L540.4 235.9L525.2 226.3L510 222.4L494.7 212.8L479.5 205L464.2 196.4L449 189.1L433.7 186L418.5 179.6L403.2 185.2L388 179.8L372.7 191.6L357.5 188.3L342.2 191.3L327 233.8L311.7 216.2L296.5 211.4L281.3 196.5L266 192.7L250.8 182.2L235.5 170L220.3 172L205 182L189.8 184.7L174.5 178.4L159.3 182.4L144 188.6L128.8 181L113.5 150.7L98.3 146.1L83.1 178.5L67.8 156.8L52.6 147.5" fill="#34983f" fill-opacity="0.7" class="World_1-area"></path><path stroke-linecap="round" d="M52.6 147.5L67.8 156.8L83.1 178.5L98.3 146.1L113.5 150.7L128.8 181L144 188.6L159.3 182.4L174.5 178.4L189.8 184.7L205 182L220.3 172L235.5 170L250.8 182.2L266 192.7L281.3 196.5L296.5 211.4L311.7 216.2L327 233.8L342.2 191.3L357.5 188.3L372.7 191.6L388 179.8L403.2 185.2L418.5 179.6L433.7 186L449 189.1L464.2 196.4L479.5 205L494.7 212.8L510 222.4L525.2 226.3L540.4 235.9L555.7 230.4L570.9 230.3L586.2 230.6L601.4 239.7L616.7 233.3L631.9 226.9L647.2 230.5L662.4 233.9L677.7 226.9L692.9 225.9L708.2 224.1" stroke="rgb(43, 80, 141)" stroke-opacity="0.7" stroke-width="0.5" fill="none" class="World_0-border"></path><path stroke-linecap="round" d="M52.6 142.6L67.8 152L83.1 173.4L98.3 141.3L113.5 145.5L128.8 175.7L144 183.2L159.3 177.1L174.5 172.6L189.8 178L205 174.7L220.3 162.7L235.5 160.1L250.8 171.9L266 182L281.3 185L296.5 199.8L311.7 204.6L327 212.5L342.2 166.1L357.5 168.5L372.7 169.9L388 157.8L403.2 162.7L418.5 156.9L433.7 163.3L449 165.6L464.2 172.4L479.5 179.6L494.7 185.9L510 194.8L525.2 196.3L540.4 204.1L555.7 195.9L570.9 193.1L586.2 190.1L601.4 194.9L616.7 182.1L631.9 167.2L647.2 162.7L662.4 155.6L677.7 137.2L692.9 122.5L708.2 109.4" stroke="rgb(44, 127, 53)" stroke-opacity="0.7" stroke-width="0.5" fill="none" class="World_1-border"></path></g></g></g><g style="fill: #777;" class="SourcesFooter"><g style="fill: #777;" class="clickable"><text font-size="12.60" x="15.0" y="581.6"><tspan x="15" y="581.58">Source: International Energy Agency (IEA) via The World Bank</tspan></text></g><text font-size="12.60" x="649.0" y="581.6"><tspan x="649.024" y="581.58"><a target='_blank' style='fill: #777;' href='https://ourworldindata.org'>OurWorldInData.org</a> • <a style="fill: #777;" href="http://creativecommons.org/licenses/by-sa/4.0/deed.en_US" target="_blank">CC BY-SA</a></tspan></text></g></g></svg>
